X: 5
M: 4/4
L: 1/4
K: C
|  [C4 E4 G4 B4] | [E4 G4 B4 c4] | [G4 B4 c4 e4] | [B4 c4 e4 g4] || [E4 G4 B4 d4 ^f4 a4 ] | [E4 G4 B4 d4 a4 ] | [E4 G4 A4 B4 d4 ] | [E4 A4 d4 g4 b4] ||
w: Cmaj7           _               _               _                Em11                    _                   _                   _
